X:85
T:Brodie of Brodie
R:Strathspey
B:The Athole Collection
M:C|
L:1/8
K:D
A,>DD>A, A,<D D>B|A>FD>F E2E2|A,>DD>A, A,>DD>B|A>FE>F D2D:|
A<d d>e d/e/f/g/ a>d|g>bf>a e2e2|A<d d>e d/e/f/g/ a>f|B>d F>d D2D2|
A<d d>e d/e/f/g/ a>d|g>bf>a e2e2|A,<D D>A A,<D D>B|A>FE>F D2D2||

